assets/images/component/AppFooter/logo/fer.svg

<svg width="92" height="39" viewBox="0 0 92 39" fill="none" xmlns="http://www.w3.org/2000/svg">
<path fill-rule="evenodd" clip-rule="evenodd" d="M79.2753 -1.52588e-05H41.3639C41.3557 -1.52588e-05 41.353 0.00540879 41.353 0.0108328V8.23911C41.353 8.24725 41.3557 8.24996 41.3639 8.24996H79.2156C81.1628 8.24996 82.7385 9.77412 82.6789 11.7268C82.6219 13.6143 80.992 15.0816 79.0963 15.0816H70.3554C70.35 15.0816 70.3446 15.087 70.3446 15.0924L70.3391 23.318C70.3391 23.3234 70.3446 23.3288 70.35 23.3288H75.0445C75.0499 23.3288 75.0526 23.3315 75.0554 23.3342L82.6734 38.4131C82.6761 38.4158 82.6789 38.4185 82.6816 38.4185H91.9892C91.9974 38.4185 92.0028 38.4104 91.9974 38.4022L83.8938 22.4393C83.8911 22.4338 83.8911 22.4284 83.8966 22.4257C88.0568 20.6222 90.9749 16.4918 90.9749 11.6969C90.9749 5.26674 85.7326 0.032529 79.2753 0.00269677V-1.52588e-05Z" fill="white"/>
<path fill-rule="evenodd" clip-rule="evenodd" d="M62.0511 23.3261H13.0611C13.0557 23.3261 13.0503 23.3207 13.0503 23.3153V15.0924C13.0503 15.087 13.0557 15.0816 13.0611 15.0816H62.0511C62.0566 15.0816 62.062 15.087 62.062 15.0924V23.3126C62.062 23.3207 62.0566 23.3261 62.0511 23.3261Z" fill="white"/>
<path fill-rule="evenodd" clip-rule="evenodd" d="M70.423 38.4187H20.7252C20.7198 38.4187 20.7144 38.4133 20.7144 38.4078V30.1877C20.7144 30.1823 20.7198 30.1768 20.7252 30.1768H70.423C70.4285 30.1768 70.4339 30.1823 70.4339 30.1877V38.4078C70.4339 38.4133 70.4285 38.4187 70.423 38.4187Z" fill="white"/>
<path fill-rule="evenodd" clip-rule="evenodd" d="M33.046 0H0.0135601C0.00813607 0 0.00271202 0.00542405 0.00271202 0.0108481V5.49727H0V38.4077C0 38.4131 0.00542405 38.4185 0.0108481 38.4185H8.26625C8.27167 38.4185 8.2771 38.4131 8.2771 38.4077V8.25269C8.2771 8.24727 8.27981 8.24184 8.28523 8.24184H33.046C33.0514 8.24184 33.0569 8.23642 33.0569 8.23099V0.0108481C33.0569 0.00542405 33.0514 0 33.046 0Z" fill="white"/>
</svg>

<svg width="92" height="39" fill="none" xmlns="http://www.w3.org/2000/svg"><path fill-rule="evenodd" clip-rule="evenodd" d="M79.275 0H41.364c-.008 0-.011.005-.011.01v8.23c0 .007.003.01.01.01h37.853c1.947 0 3.523 1.524 3.463 3.477-.057 1.887-1.687 3.355-3.583 3.355h-8.74a.012.012 0 0 0-.011.01l-.006 8.226c0 .005.006.01.011.01h4.695c.005 0 .008.003.01.006l7.618 15.08c.003.002.006.005.009.005h9.307a.01.01 0 0 0 .008-.017L83.894 22.44c-.003-.005-.003-.01.003-.013 4.16-1.804 7.078-5.934 7.078-10.73 0-6.43-5.242-11.663-11.7-11.693V0Z" fill="#fff"/><path fill-rule="evenodd" clip-rule="evenodd" d="M62.051 23.326h-48.99a.012.012 0 0 1-.01-.01v-8.224a.01.01 0 0 1 .01-.01h48.99c.006 0 .011.005.011.01v8.22c0 .009-.005.014-.01.014Zm8.372 15.093H20.725c-.005 0-.01-.006-.01-.011v-8.22c0-.006.005-.011.01-.011h49.698a.01.01 0 0 1 .01.01v8.22c0 .006-.005.012-.01.012Z" fill="#fff"/><path fill-rule="evenodd" clip-rule="evenodd" d="M33.046 0H.014a.012.012 0 0 0-.011.01v5.487H0v32.91c0 .006.005.012.01.012h8.256c.006 0 .011-.006.011-.011V8.253c0-.006.003-.011.008-.011h24.761c.005 0 .01-.006.01-.011V.011c0-.006-.005-.011-.01-.011Z" fill="#fff"/></svg>
